images/hard-s-icon.svg

<svg width="24" height="24" viewBox="0 0 24 24" fill="none" xmlns="http://www.w3.org/2000/svg">
    <g clip-path="url(#clip0_8773_35811)">
        <path d="M7.68562 11.8728C9.28288 12.0725 10.747 10.9854 11.945 12.1167C12.7784 11.602 13.6451 11.3391 14.2078 11.54C15.1395 11.8728 16.0712 12.1612 16.5371 12.0724L20.0644 17.7959L19.5319 18.1953C20.863 19.3073 19.5319 20.8574 18.334 20.1253L17.9347 19.8512C18.4006 20.5246 17.8681 22.1218 16.404 21.4563L15.8833 21.1001C16.5701 21.625 15.982 23.1421 14.7402 22.5212L13.9635 22.049L13.0584 21.4815C14.7222 22.5393 13.5918 23.6716 12.5136 23.0482L11.2129 22.3881L4.0918 17.5963L7.68562 11.8728Z" fill="#D4E5FB"/>
        <path d="M11.945 12.1167C10.747 10.9854 9.28288 12.0725 7.68562 11.8728L4.0918 17.5963L11.2129 22.3881L12.5136 23.0482C13.6004 23.6766 14.7402 22.5212 13.0182 21.4563L13.9635 22.049L14.7402 22.5212C16.018 23.1601 16.6036 21.5353 15.8204 21.057M19.5319 18.1953C15.3258 14.6813 13.875 14.1578 13.6753 14.3352C11.3859 16.3052 10.1481 16.4427 9.8153 16.2652C9.54909 16.1765 9.1764 15.6663 9.8153 14.3352C10.6139 12.6714 13.0521 11.1273 14.2078 11.54C15.1395 11.8728 16.0712 12.1612 16.5371 12.0724L20.0644 17.7959L19.5319 18.1953ZM19.5319 18.1953C20.863 19.3073 19.5319 20.8574 18.334 20.1253L17.9347 19.8512M14.9398 17.7959L17.9347 19.8512M17.9347 19.8512C18.4006 20.5246 17.8681 22.1218 16.404 21.4563L15.8204 21.057M13.875 19.726L15.8204 21.057" stroke="white" stroke-width="0.5" stroke-linecap="round"/>
        <path d="M14.2276 11.4746C15.1594 11.8074 16.0911 12.0958 16.557 12.007L20.0843 17.7305L19.5518 18.1298C15.3457 14.6159 13.8949 14.0923 13.6952 14.2698C11.4058 16.2398 10.168 16.3773 9.83519 16.1998C9.56898 16.1111 9.19629 15.6009 9.83519 14.2698C10.6338 12.606 13.072 11.0619 14.2276 11.4746Z" fill="#2A7DEC" stroke="white" stroke-width="0.5"/>
        <rect x="5.97042" y="16.3366" width="2.05094" height="3.47703" rx="1.02547" transform="rotate(35.8279 5.97042 16.3366)" fill="#2A7DEC" stroke="white" stroke-width="0.5"/>
        <rect x="8.22823" y="16.7004" width="1.94437" height="4.76611" rx="0.972187" transform="rotate(35.8279 8.22823 16.7004)" fill="#2A7DEC" stroke="white" stroke-width="0.5"/>
        <rect x="9.96065" y="17.7455" width="1.87395" height="4.76611" rx="0.936973" transform="rotate(35.8279 9.96065 17.7455)" fill="#2A7DEC" stroke="white" stroke-width="0.5"/>
        <rect x="10.9235" y="19.7423" width="1.80306" height="3.22828" rx="0.901528" transform="rotate(35.8279 10.9235 19.7423)" fill="#2A7DEC" stroke="white" stroke-width="0.5"/>
        <rect x="16.2645" y="10.9679" width="3.61218" height="8.75135" rx="0.860657" transform="rotate(-31.5297 16.2645 10.9679)" fill="#2A7DEC" stroke="#2A7DEC" stroke-width="0.114754"/>
        <rect x="4.79862" y="9.07926" width="3.61218" height="8.75135" rx="0.860657" transform="rotate(32.637 4.79862 9.07926)" fill="#2A7DEC" stroke="#2A7DEC" stroke-width="0.114754"/>
        <path d="M15.1027 8.28543C15.1973 8.15927 15.2851 8.02336 15.3687 7.87313C15.4496 7.72746 15.5213 7.57659 15.5738 7.42702L16.9236 7.23589C16.9828 7.22583 17.0361 7.19577 17.0745 7.15082C17.1129 7.10588 17.134 7.04885 17.1341 6.98943L17.0758 4.9786C17.0746 4.91823 17.0518 4.85972 17.0115 4.81334C16.9712 4.76696 16.9159 4.73567 16.8554 4.72496L15.494 4.54019C15.3562 4.23712 15.1891 3.95357 14.9737 3.69082L15.4481 2.44091C15.4688 2.3842 15.4679 2.32157 15.4458 2.26441C15.4236 2.20725 15.3815 2.15935 15.3272 2.1294L13.5302 1.13039C13.4179 1.06795 13.2859 1.09591 13.2065 1.19475L12.3952 2.25735C12.0584 2.21311 11.7222 2.22285 11.3992 2.2638L10.5237 1.20501C10.441 1.11136 10.3038 1.08274 10.1919 1.15166L8.45791 2.16609C8.34861 2.23046 8.30153 2.35923 8.35969 2.47499L8.90983 3.72236C8.81051 3.84591 8.70828 3.98573 8.62983 4.12685C8.55138 4.26797 8.47723 4.42339 8.4247 4.57296L7.07487 4.76409C7.01569 4.77415 6.96236 4.80422 6.92397 4.84916C6.88558 4.8941 6.86451 4.95114 6.86434 5.01055L6.92267 7.02138C6.92315 7.15275 7.02243 7.24965 7.1431 7.27502L8.5045 7.45979C8.64232 7.76286 8.80936 8.04641 9.02473 8.30916L8.55041 9.55907C8.51307 9.68133 8.55897 9.80815 8.67128 9.87058L10.4683 10.8696C10.5806 10.932 10.7172 10.9067 10.792 10.8052L11.6033 9.74263C11.9401 9.78687 12.2738 9.78169 12.5993 9.73618L13.4748 10.795C13.5575 10.8886 13.6947 10.9172 13.8066 10.8483L15.5453 9.8365C15.6571 9.76757 15.697 9.64075 15.6435 9.52759L15.1027 8.28543ZM11.0882 7.63878C10.1616 7.12366 9.81346 5.96475 10.3145 5.06342C10.8156 4.16209 11.9837 3.84609 12.9103 4.3612C13.8369 4.87632 14.185 6.03523 13.6839 6.93656C13.1829 7.8379 12.0148 8.15389 11.0882 7.63878Z" fill="#2A7DEC"/>
    </g>
    <defs>
        <clipPath id="clip0_8773_35811">
            <rect width="24" height="24" fill="white"/>
        </clipPath>
    </defs>
</svg>

<svg width="24" height="24" fill="none" xmlns="http://www.w3.org/2000/svg"><g clip-path="url(#a)"><path d="M7.686 11.873c1.597.2 3.061-.888 4.259.244.833-.515 1.7-.778 2.263-.577.931.333 1.863.621 2.33.532l3.526 5.724-.532.4c1.331 1.111 0 2.661-1.198 1.93l-.4-.275c.467.674-.066 2.27-1.53 1.605l-.52-.356c.686.525.098 2.042-1.144 1.421l-.777-.472-.905-.567c1.664 1.057.534 2.19-.544 1.566l-1.301-.66-7.121-4.792 3.594-5.723Z" fill="#D4E5FB"/><path d="M11.945 12.117c-1.198-1.132-2.662-.045-4.26-.244l-3.593 5.723 7.12 4.792 1.302.66c1.086.629 2.226-.527.504-1.592l.945.593.777.472c1.278.64 1.864-.986 1.08-1.464m3.712-2.862c-4.206-3.514-5.657-4.037-5.857-3.86-2.29 1.97-3.527 2.108-3.86 1.93-.266-.088-.639-.599 0-1.93.799-1.664 3.237-3.208 4.393-2.795.931.333 1.863.621 2.33.532l3.526 5.724-.532.4Zm0 0c1.331 1.112 0 2.662-1.198 1.93l-.4-.274m-2.994-2.055 2.995 2.055m0 0c.466.674-.067 2.27-1.531 1.605l-.584-.399m-1.945-1.331 1.945 1.331" stroke="#fff" stroke-width=".5" stroke-linecap="round"/><path d="M14.228 11.475c.931.332 1.863.62 2.329.532l3.527 5.723-.532.4c-4.206-3.514-5.657-4.038-5.857-3.86-2.29 1.97-3.527 2.107-3.86 1.93-.266-.089-.639-.6 0-1.93.799-1.664 3.237-3.208 4.393-2.795Z" fill="#2A7DEC" stroke="#fff" stroke-width=".5"/><rect x="5.97" y="16.337" width="2.051" height="3.477" rx="1.025" transform="rotate(35.828 5.97 16.337)" fill="#2A7DEC" stroke="#fff" stroke-width=".5"/><rect x="8.228" y="16.7" width="1.944" height="4.766" rx=".972" transform="rotate(35.828 8.228 16.7)" fill="#2A7DEC" stroke="#fff" stroke-width=".5"/><rect x="9.961" y="17.745" width="1.874" height="4.766" rx=".937" transform="rotate(35.828 9.96 17.745)" fill="#2A7DEC" stroke="#fff" stroke-width=".5"/><rect x="10.924" y="19.742" width="1.803" height="3.228" rx=".902" transform="rotate(35.828 10.924 19.742)" fill="#2A7DEC" stroke="#fff" stroke-width=".5"/><rect x="16.265" y="10.968" width="3.612" height="8.751" rx=".861" transform="rotate(-31.53 16.265 10.968)" fill="#2A7DEC" stroke="#2A7DEC" stroke-width=".115"/><rect x="4.799" y="9.079" width="3.612" height="8.751" rx=".861" transform="rotate(32.637 4.799 9.08)" fill="#2A7DEC" stroke="#2A7DEC" stroke-width=".115"/><path d="M15.103 8.285c.094-.126.182-.262.266-.412.08-.146.152-.296.205-.446l1.35-.191a.249.249 0 0 0 .21-.246l-.058-2.011a.26.26 0 0 0-.064-.166.27.27 0 0 0-.157-.088l-1.361-.185a3.807 3.807 0 0 0-.52-.85l.474-1.25a.25.25 0 0 0-.002-.176.264.264 0 0 0-.119-.135L13.53 1.13a.251.251 0 0 0-.323.065l-.812 1.062a3.893 3.893 0 0 0-.996.007l-.875-1.059a.259.259 0 0 0-.332-.053L8.458 2.166c-.11.064-.156.193-.098.309l.55 1.247c-.1.124-.202.264-.28.405a2.973 2.973 0 0 0-.205.446l-1.35.191a.25.25 0 0 0-.21.246l.058 2.011c0 .132.1.229.22.254l1.362.185c.137.303.304.586.52.85L8.55 9.56a.261.261 0 0 0 .121.31l1.797 1a.248.248 0 0 0 .324-.065l.811-1.062c.337.044.67.039.996-.007l.876 1.059c.082.094.22.122.332.053l1.738-1.012a.237.237 0 0 0 .098-.308l-.54-1.243Zm-4.015-.646c-.926-.515-1.275-1.674-.773-2.576.5-.9 1.669-1.217 2.595-.702.927.515 1.275 1.674.774 2.576-.501.9-1.67 1.217-2.596.702Z" fill="#2A7DEC"/></g><defs><clipPath id="a"><path fill="#fff" d="M0 0h24v24H0z"/></clipPath></defs></svg>
